Numix-Light/16/status/indicator-keyboard-Pt-3.svg

<?xml version="1.0" encoding="UTF-8" standalone="no"?>
<svg
   xmlns:dc="http://purl.org/dc/elements/1.1/"
   xmlns:cc="http://creativecommons.org/ns#"
   xmlns:rdf="http://www.w3.org/1999/02/22-rdf-syntax-ns#"
   xmlns:svg="http://www.w3.org/2000/svg"
   xmlns="http://www.w3.org/2000/svg"
   xmlns:sodipodi="http://sodipodi.sourceforge.net/DTD/sodipodi-0.dtd"
   xmlns:inkscape="http://www.inkscape.org/namespaces/inkscape"
   viewBox="0 0 16 16"
   id="svg2"
   version="1.1"
   inkscape:version="0.91 r13725"
   sodipodi:docname="indicator-keyboard-Pt-3.svg">
  <metadata
     id="metadata14">
    <rdf:RDF>
      <cc:Work
         rdf:about="">
        <dc:format>image/svg+xml</dc:format>
        <dc:type
           rdf:resource="http://purl.org/dc/dcmitype/StillImage" />
      </cc:Work>
    </rdf:RDF>
  </metadata>
  <defs
     id="defs12" />
  <sodipodi:namedview
     pagecolor="#ffffff"
     bordercolor="#666666"
     borderopacity="1"
     objecttolerance="10"
     gridtolerance="10"
     guidetolerance="10"
     inkscape:pageopacity="0"
     inkscape:pageshadow="2"
     inkscape:window-width="640"
     inkscape:window-height="480"
     id="namedview10"
     showgrid="false"
     inkscape:zoom="14.75"
     inkscape:cx="8"
     inkscape:cy="8"
     inkscape:window-x="65"
     inkscape:window-y="24"
     inkscape:window-maximized="0"
     inkscape:current-layer="svg2" />
  <path
     style="fill:#353535;fill-opacity:1"
     d="M 1.5996094 0 C 0.71320937 2.9605947e-16 0 0.71320937 0 1.5996094 L 0 14.400391 C 2.9605947e-16 15.286791 0.71320937 16 1.5996094 16 L 14.400391 16 C 15.286791 16 16 15.286791 16 14.400391 L 16 1.5996094 C 16 0.71320937 15.286791 0 14.400391 0 L 1.5996094 0 z M 4.1660156 4.8046875 C 5.0480156 4.8046875 5.7066719 4.9725938 6.1386719 5.3085938 C 6.5706719 5.6445937 6.7851563 6.1222344 6.7851562 6.7402344 C 6.7851562 7.0942344 6.7236563 7.3964375 6.5976562 7.6484375 C 6.4716563 7.8944375 6.2906406 8.0959531 6.0566406 8.2519531 C 5.8226406 8.4019531 5.5353594 8.5139375 5.1933594 8.5859375 C 4.8573594 8.6519375 4.4767813 8.6835937 4.0507812 8.6835938 L 3.203125 8.6835938 L 3.203125 11.095703 L 2.5917969 11.095703 L 2.5917969 4.9765625 C 2.8077969 4.9165625 3.0596562 4.8736094 3.3476562 4.8496094 C 3.6416562 4.8196094 3.9140156 4.8046875 4.1660156 4.8046875 z M 8.4316406 4.9667969 L 8.4316406 6.4433594 L 10.285156 6.4433594 L 10.285156 6.9375 L 8.4316406 6.9375 L 8.4316406 9.4121094 C 8.4316406 9.6761094 8.4521406 9.8925467 8.4941406 10.060547 C 8.5421406 10.222547 8.6074062 10.349453 8.6914062 10.439453 C 8.7754063 10.529453 8.8780469 10.589141 8.9980469 10.619141 C 9.1180469 10.649141 9.2505312 10.664062 9.3945312 10.664062 C 9.6405313 10.664062 9.8382812 10.636031 9.9882812 10.582031 C 10.138281 10.522031 10.255844 10.469875 10.339844 10.421875 L 10.482422 10.90625 C 10.398422 10.96025 10.252969 11.023703 10.042969 11.095703 C 9.8329686 11.161703 9.6034219 11.195313 9.3574219 11.195312 C 9.0694219 11.195312 8.8269062 11.159891 8.6289062 11.087891 C 8.4369062 11.009891 8.2801563 10.894141 8.1601562 10.744141 C 8.0461562 10.588141 7.9659688 10.397922 7.9179688 10.169922 C 7.8699687 9.9419217 7.8457031 9.671375 7.8457031 9.359375 L 7.8457031 5.0742188 L 8.4316406 4.9667969 z M 4.1933594 5.3359375 C 3.9653594 5.3359375 3.771375 5.3452812 3.609375 5.3632812 C 3.453375 5.3752813 3.317125 5.3864375 3.203125 5.3984375 L 3.203125 8.1523438 L 3.9785156 8.1523438 C 4.3085156 8.1523438 4.6051406 8.1356094 4.8691406 8.0996094 C 5.1391406 8.0576094 5.3667344 7.9848125 5.5527344 7.8828125 C 5.7447344 7.7748125 5.8921406 7.6274062 5.9941406 7.4414062 C 6.0961406 7.2554062 6.1464844 7.0184688 6.1464844 6.7304688 C 6.1464844 6.4544687 6.0905625 6.226875 5.9765625 6.046875 C 5.8685625 5.866875 5.7211562 5.7250469 5.5351562 5.6230469 C 5.3551563 5.5150469 5.1480625 5.4404375 4.9140625 5.3984375 C 4.6800625 5.3564375 4.4393594 5.3359375 4.1933594 5.3359375 z M 12.039062 8.7539062 C 12.241862 8.7539062 12.416247 8.7793781 12.560547 8.8300781 C 12.708747 8.8807781 12.830234 8.953275 12.927734 9.046875 C 13.025234 9.136575 13.097731 9.2463 13.144531 9.375 C 13.191331 9.4997999 13.214844 9.6350031 13.214844 9.7832031 C 13.214844 10.021103 13.150184 10.217041 13.021484 10.369141 C 12.896684 10.517341 12.736009 10.625106 12.537109 10.691406 C 12.646309 10.718706 12.750162 10.759859 12.851562 10.818359 C 12.956862 10.872959 13.050913 10.945456 13.132812 11.035156 C 13.214713 11.120956 13.281331 11.226762 13.332031 11.351562 C 13.382731 11.476363 13.408203 11.623316 13.408203 11.791016 C 13.408203 11.962616 13.376853 12.119372 13.314453 12.263672 C 13.255953 12.407972 13.165822 12.535331 13.044922 12.644531 C 12.927922 12.749831 12.779003 12.834084 12.595703 12.896484 C 12.412403 12.954984 12.196872 12.984375 11.951172 12.984375 C 11.822472 12.984375 11.70295 12.974578 11.59375 12.955078 C 11.48845 12.939478 11.396353 12.919884 11.314453 12.896484 C 11.232553 12.873084 11.162016 12.849572 11.103516 12.826172 C 11.048916 12.802772 11.007769 12.783178 10.980469 12.767578 L 11.080078 12.427734 C 11.103478 12.443334 11.142666 12.462928 11.197266 12.486328 C 11.251866 12.509728 11.316525 12.533241 11.390625 12.556641 C 11.468625 12.576141 11.552884 12.593775 11.646484 12.609375 C 11.743984 12.624975 11.849791 12.632813 11.962891 12.632812 C 12.333391 12.632812 12.599866 12.556397 12.759766 12.404297 C 12.919666 12.248297 12.998047 12.040597 12.998047 11.779297 C 12.998047 11.607697 12.964738 11.464662 12.898438 11.351562 C 12.836037 11.238462 12.749819 11.148331 12.636719 11.082031 C 12.527519 11.011831 12.3982 10.962847 12.25 10.935547 C 12.1057 10.904347 11.950909 10.888672 11.787109 10.888672 L 11.728516 10.888672 L 11.728516 10.574219 L 11.863281 10.574219 C 11.968581 10.574219 12.076347 10.564422 12.185547 10.544922 C 12.298647 10.521522 12.400534 10.480375 12.490234 10.421875 C 12.583834 10.363375 12.66025 10.285 12.71875 10.1875 C 12.78115 10.09 12.810547 9.9646001 12.810547 9.8125 C 12.810547 9.6838 12.790947 9.5760281 12.748047 9.4863281 C 12.705147 9.3927281 12.646366 9.3182719 12.572266 9.2636719 C 12.502066 9.2090719 12.417812 9.1698844 12.320312 9.1464844 C 12.226712 9.1191844 12.126784 9.1054687 12.021484 9.1054688 C 11.810884 9.1054688 11.64825 9.1348594 11.53125 9.1933594 C 11.41425 9.2518594 11.318241 9.3067219 11.244141 9.3574219 L 11.080078 9.0585938 C 11.119078 9.0312937 11.168062 8.9999437 11.226562 8.9648438 C 11.288963 8.9297437 11.361459 8.8964344 11.443359 8.8652344 C 11.525259 8.8340344 11.613437 8.8085625 11.710938 8.7890625 C 11.812337 8.7656625 11.922063 8.7539062 12.039062 8.7539062 z "
     id="path4" />
</svg>

<svg xmlns="http://www.w3.org/2000/svg" viewBox="0 0 16 16">
 <path d="m 1.6 0 c -0.886 0 -1.6 0.713 -1.6 1.6 l 0 12.801 c 0 0.886 0.713 1.6 1.6 1.6 l 12.801 0 c 0.886 0 1.6 -0.713 1.6 -1.6 l 0 -12.801 c 0 -0.886 -0.713 -1.6 -1.6 -1.6 l -12.801 0 z m 2.566 4.805 c 0.882 0 1.541 0.168 1.973 0.504 c 0.432 0.336 0.646 0.814 0.646 1.432 c 0 0.354 -0.061 0.656 -0.188 0.908 c -0.126 0.246 -0.307 0.448 -0.541 0.604 c -0.234 0.15 -0.521 0.262 -0.863 0.334 c -0.336 0.066 -0.717 0.098 -1.143 0.098 l -0.848 0 l 0 2.412 l -0.611 0 l 0 -6.119 c 0.216 -0.06 0.468 -0.103 0.756 -0.127 c 0.294 -0.03 0.566 -0.045 0.818 -0.045 z m 4.266 0.162 l 0 1.477 l 1.854 0 l 0 0.494 l -1.854 0 l 0 2.475 c 0 0.264 0.021 0.48 0.063 0.648 c 0.048 0.162 0.113 0.289 0.197 0.379 c 0.084 0.09 0.187 0.15 0.307 0.18 c 0.12 0.03 0.252 0.045 0.396 0.045 c 0.246 0 0.444 -0.028 0.594 -0.082 c 0.15 -0.06 0.268 -0.112 0.352 -0.16 l 0.143 0.484 c -0.084 0.054 -0.229 0.117 -0.439 0.189 c -0.21 0.066 -0.44 0.1 -0.686 0.1 c -0.288 0 -0.531 -0.035 -0.729 -0.107 c -0.192 -0.078 -0.349 -0.194 -0.469 -0.344 c -0.114 -0.156 -0.194 -0.346 -0.242 -0.574 c -0.048 -0.228 -0.072 -0.499 -0.072 -0.811 l 0 -4.285 l 0.586 -0.107 z m -4.238 0.369 c -0.228 0 -0.422 0.009 -0.584 0.027 c -0.156 0.012 -0.292 0.023 -0.406 0.035 l 0 2.754 l 0.775 0 c 0.33 0 0.627 -0.017 0.891 -0.053 c 0.27 -0.042 0.498 -0.115 0.684 -0.217 c 0.192 -0.108 0.339 -0.255 0.441 -0.441 c 0.102 -0.186 0.152 -0.423 0.152 -0.711 c 0 -0.276 -0.056 -0.504 -0.17 -0.684 c -0.108 -0.18 -0.255 -0.322 -0.441 -0.424 c -0.18 -0.108 -0.387 -0.183 -0.621 -0.225 c -0.234 -0.042 -0.475 -0.063 -0.721 -0.063 z m 7.846 3.418 c 0.203 0 0.377 0.025 0.521 0.076 c 0.148 0.051 0.27 0.123 0.367 0.217 c 0.098 0.09 0.17 0.199 0.217 0.328 c 0.047 0.125 0.07 0.26 0.07 0.408 c 0 0.238 -0.065 0.434 -0.193 0.586 c -0.125 0.148 -0.285 0.256 -0.484 0.322 c 0.109 0.027 0.213 0.068 0.314 0.127 c 0.105 0.055 0.199 0.127 0.281 0.217 c 0.082 0.086 0.149 0.192 0.199 0.316 c 0.051 0.125 0.076 0.272 0.076 0.439 c 0 0.172 -0.031 0.328 -0.094 0.473 c -0.059 0.144 -0.149 0.272 -0.27 0.381 c -0.117 0.105 -0.266 0.19 -0.449 0.252 c -0.183 0.059 -0.399 0.088 -0.645 0.088 c -0.129 0 -0.248 -0.01 -0.357 -0.029 c -0.105 -0.016 -0.197 -0.035 -0.279 -0.059 c -0.082 -0.023 -0.152 -0.047 -0.211 -0.07 c -0.055 -0.023 -0.096 -0.043 -0.123 -0.059 l 0.1 -0.34 c 0.023 0.016 0.063 0.035 0.117 0.059 c 0.055 0.023 0.119 0.047 0.193 0.07 c 0.078 0.019 0.162 0.037 0.256 0.053 c 0.098 0.016 0.203 0.023 0.316 0.023 c 0.37 0 0.637 -0.076 0.797 -0.229 c 0.16 -0.156 0.238 -0.364 0.238 -0.625 c 0 -0.172 -0.033 -0.315 -0.1 -0.428 c -0.062 -0.113 -0.149 -0.203 -0.262 -0.27 c -0.109 -0.07 -0.239 -0.119 -0.387 -0.146 c -0.144 -0.031 -0.299 -0.047 -0.463 -0.047 l -0.059 0 l 0 -0.314 l 0.135 0 c 0.105 0 0.213 -0.01 0.322 -0.029 c 0.113 -0.023 0.215 -0.065 0.305 -0.123 c 0.094 -0.059 0.17 -0.137 0.229 -0.234 c 0.062 -0.098 0.092 -0.223 0.092 -0.375 c 0 -0.129 -0.02 -0.236 -0.063 -0.326 c -0.043 -0.094 -0.102 -0.168 -0.176 -0.223 c -0.07 -0.055 -0.154 -0.094 -0.252 -0.117 c -0.094 -0.027 -0.194 -0.041 -0.299 -0.041 c -0.211 0 -0.373 0.029 -0.49 0.088 c -0.117 0.059 -0.213 0.113 -0.287 0.164 l -0.164 -0.299 c 0.039 -0.027 0.088 -0.059 0.146 -0.094 c 0.062 -0.035 0.135 -0.068 0.217 -0.1 c 0.082 -0.031 0.17 -0.057 0.268 -0.076 c 0.101 -0.023 0.211 -0.035 0.328 -0.035 z" style="fill:#353535;fill-opacity:1"/>
</svg>
